src/images/global/icons/alert/help.svg

<?xml version="1.0" encoding="UTF-8"?>
<svg width="48px" height="48px" viewBox="0 0 48 48" version="1.1" xmlns="http://www.w3.org/2000/svg" xmlns:xlink="http://www.w3.org/1999/xlink">
    <!-- Generator: Sketch 46.2 (44496) - http://www.bohemiancoding.com/sketch -->
    <title>icon/Alert/help</title>
    <desc>Created with Sketch.</desc>
    <defs>
        <path d="M22.3999615,0 L1.60003846,0 C0.805269231,0 0,0.788653846 0,1.60003846 L0,22.3999615 C0,23.1851538 0.771923077,24 1.5,24 L22.3999615,24 C23.1891923,23.9856923 24,23.2178077 24,22.3999615 L24,1.5 C24,0.796615385 23.1949615,0 22.3999615,0 L22.3999615,0 Z M12,19.3999615 C11.5029231,19.3999615 11.1,18.9970385 11.1,18.5000769 C11.1,18.0028846 11.5029231,17.5999615 12,17.5999615 C12.4970769,17.5999615 12.9,18.0028846 12.9,18.5000769 C12.9,18.9970385 12.4970769,19.3999615 12,19.3999615 L12,19.3999615 Z M13.6161923,12.3934615 C13.239,12.8165769 12.7226538,13.3961538 12.6918462,13.6099615 L12.6923077,15.9999231 C12.6923077,16.3821923 12.3822692,16.6922308 12,16.6922308 C11.6177308,16.6922308 11.3076923,16.3821923 11.3076923,15.9999231 L11.3076923,13.6000385 C11.3076923,12.9028846 11.8701923,12.2715 12.5824615,11.4723462 C13.4402308,10.5096923 14.5077692,9.31165385 14.5077692,8.00007692 C14.5077692,7.00315385 13.4778462,5.89234615 12.0001154,5.89234615 C9.46903846,5.89234615 9.29688462,7.95980769 9.29076923,8.04784615 C9.26434615,8.42942308 8.93284615,8.71684615 8.55230769,8.69076923 C8.17084615,8.66434615 7.88307692,8.33376923 7.90938462,7.95230769 C7.91180769,7.91780769 8.19184615,4.50773077 12.0001154,4.50773077 C12.9474231,4.50773077 13.9108846,4.85780769 14.6433462,5.46819231 C15.4487308,6.1395 15.8923846,7.03857692 15.8923846,8.00007692 C15.8922692,9.83896154 14.5767692,11.3154231 13.6161923,12.3934615 L13.6161923,12.3934615 Z" id="path-1"></path>
    </defs>
    <g id="Symbols" stroke="none" stroke-width="1" fill="none" fill-rule="evenodd">
        <g id="icon/Alert/help">
            <g id="Icon" transform="translate(12.000000, 12.000000)">
                <mask id="mask-2" fill="white">
                    <use xlink:href="#path-1"></use>
                </mask>
                <use id="Mask" fill="#384048" xlink:href="#path-1"></use>
                <g id="Color/Messaging/Neutral" mask="url(#mask-2)" fill="#056B9E">
                    <g transform="translate(-12.000000, -12.000000)" id="Swatch">
                        <rect x="0" y="0" width="48" height="48"></rect>
                    </g>
                </g>
            </g>
        </g>
    </g>
</svg>

<?xml version="1.0" encoding="utf-8"?>
<!-- Generator: Adobe Illustrator 21.0.2, SVG Export Plug-In . SVG Version: 6.00 Build 0)  -->
<svg version="1.1" id="icon_x2F_Alert_x2F_help-Layer_1" xmlns="http://www.w3.org/2000/svg" xmlns:xlink="http://www.w3.org/1999/xlink" x="0px" y="0px"
	 viewBox="0 0 48 48" style="enable-background:new 0 0 48 48;" xml:space="preserve">
<title>icon/Alert/help</title>
<desc>Created with Sketch.</desc>
<g id="icon_x2F_Alert_x2F_help-Symbols">
	<g id="icon_x2F_Alert_x2F_help">
		<g id="icon_x2F_Alert_x2F_help-Icon" transform="translate(12.000000, 12.000000)">
			<g id="icon_x2F_Alert_x2F_help-Mask">
				<path id="icon_x2F_Alert_x2F_help-path-1_1_" style="fill:#384048;" d="M22.4,0H1.6C0.8,0,0,0.8,0,1.6v20.8C0,23.2,0.8,24,1.5,24h20.9
					c0.8,0,1.6-0.8,1.6-1.6V1.5C24,0.8,23.2,0,22.4,0L22.4,0z M12,19.4c-0.5,0-0.9-0.4-0.9-0.9c0-0.5,0.4-0.9,0.9-0.9
					s0.9,0.4,0.9,0.9C12.9,19,12.5,19.4,12,19.4L12,19.4z M13.6,12.4c-0.4,0.4-0.9,1-0.9,1.2l0,2.4c0,0.4-0.3,0.7-0.7,0.7
					s-0.7-0.3-0.7-0.7v-2.4c0-0.7,0.6-1.3,1.3-2.1c0.9-1,1.9-2.2,1.9-3.5c0-1-1-2.1-2.5-2.1C9.5,5.9,9.3,8,9.3,8
					c0,0.4-0.4,0.7-0.7,0.6C8.2,8.7,7.9,8.3,7.9,8c0,0,0.3-3.4,4.1-3.4c0.9,0,1.9,0.4,2.6,1C15.4,6.1,15.9,7,15.9,8
					C15.9,9.8,14.6,11.3,13.6,12.4L13.6,12.4z"/>
			</g>
			<defs>
				<filter id="icon_x2F_Alert_x2F_help-Adobe_OpacityMaskFilter" filterUnits="userSpaceOnUse" x="-12" y="-12" width="48" height="48">
					<feColorMatrix  type="matrix" values="1 0 0 0 0  0 1 0 0 0  0 0 1 0 0  0 0 0 1 0"/>
				</filter>
			</defs>
			<mask maskUnits="userSpaceOnUse" x="-12" y="-12" width="48" height="48" id="icon_x2F_Alert_x2F_help-mask-2">
				<g style="filter:url(#icon_x2F_Alert_x2F_help-Adobe_OpacityMaskFilter);">
					<path id="icon_x2F_Alert_x2F_help-path-1" style="fill:#FFFFFF;" d="M22.4,0H1.6C0.8,0,0,0.8,0,1.6v20.8C0,23.2,0.8,24,1.5,24h20.9
						c0.8,0,1.6-0.8,1.6-1.6V1.5C24,0.8,23.2,0,22.4,0L22.4,0z M12,19.4c-0.5,0-0.9-0.4-0.9-0.9c0-0.5,0.4-0.9,0.9-0.9
						s0.9,0.4,0.9,0.9C12.9,19,12.5,19.4,12,19.4L12,19.4z M13.6,12.4c-0.4,0.4-0.9,1-0.9,1.2l0,2.4c0,0.4-0.3,0.7-0.7,0.7
						s-0.7-0.3-0.7-0.7v-2.4c0-0.7,0.6-1.3,1.3-2.1c0.9-1,1.9-2.2,1.9-3.5c0-1-1-2.1-2.5-2.1C9.5,5.9,9.3,8,9.3,8
						c0,0.4-0.4,0.7-0.7,0.6C8.2,8.7,7.9,8.3,7.9,8c0,0,0.3-3.4,4.1-3.4c0.9,0,1.9,0.4,2.6,1C15.4,6.1,15.9,7,15.9,8
						C15.9,9.8,14.6,11.3,13.6,12.4L13.6,12.4z"/>
				</g>
			</mask>
			<g id="icon_x2F_Alert_x2F_help-Color_x2F_Messaging_x2F_Neutral" style="mask:url(#icon_x2F_Alert_x2F_help-mask-2);">
				<g id="icon_x2F_Alert_x2F_help-Swatch" transform="translate(-12.000000, -12.000000)">
					<rect style="fill:#056B9E;" width="48" height="48"/>
				</g>
			</g>
		</g>
	</g>
</g>
</svg>
